X: 210
T: Lady Shaftsbury's delight
%R: hornpipe, reel
B: "Twenty Four Country Dances for the Year 1793", Preston & Son, eds. p.85
F: http://www.vwml.org/browse/browse-collections-dance-tune-books/browse-prestons1793# 2014-8-7
Z: 2014 John Chambers <jc:trillian.mit.edu>
M: C|
L: 1/8
K: F
(A/G/) |\
F>CB,>C F>GA>d | cAGF EG2A/G/ |\
F>CA,>C FGAd | cAGA F3 :|
c |\
(fe)(dc) {e}f2Fd | cAGF EG2c |\
fedc {e}f2Fd | cAGA F3c |
fedc cdef | gGGG GABd |\
c>dcA GFGA | FA/G/ FC F3 |]
% = = = = = = = = = = = = = = = = = = = = = = = = =
%%begintext align
%% The 1st Cu: set to the 2d Lady & hands three
%% round .| Set to the 2d Gent.n & hands three
%% round :| Lead down the middle up again :|.
%% Allemande :|:
%%endtext
% = = = = = = = = = = = = = = = = = = = = = = = = =

%%sep 1 1 500
%%sep 1 1 500
